X:1
T:Andro 1
G:Kazimodal
R:Andro
C:Traditionnel, arrangement Ronan Keryell http://kazimodal.trad.org
Q:C2=108
P:A5
M:4/4
S:Tonioù Breizh-Izel 1718 (Ardeven)
K:C
P:A
%\large
%%MIDI program 109
%%MIDI gchord fcfcfcfc
%%MIDI chordprog 105
%%MIDI bassprog 32
%%MIDI bassvol 127
|: "C"G(G/2A/2) "Em"{GA}G>E "Am"AA "G"G/2G/2G |\
"C"G>A "Em"{GA}GE "Am"{E}A/2A/2A "G"G2 :|
|: "G"(G/2F/2)(D/2E/2) "Am"(CD/2)E/2 "Dm"FD "C"EC |\
"Am"{AB}AB/2c/2 "G"B>G "F"AF "C"G2 |
"Dm"(G/2F/2)(D/2E/2) "Em"G(D/2E/2) "F"(F/2D/2)E "C"C2 |\
"Am"{AB}AB/2c/2 "G"BG "F"A"G"B "C"c2 :|

\bigskip


